modules/themify-icons/icons/rocket.svg

<?xml version="1.0" encoding="utf-8"?>
<!-- Generated by IcoMoon.io -->
<!DOCTYPE svg PUBLIC "-//W3C//DTD SVG 1.1//EN" "http://www.w3.org/Graphics/SVG/1.1/DTD/svg11.dtd">
<svg version="1.1" xmlns="http://www.w3.org/2000/svg" xmlns:xlink="http://www.w3.org/1999/xlink" width="17" height="17" viewBox="0 0 17 17">
<g>
</g>
	<path d="M12 11c0-1 0-5 0-6 0-5-3-5-3-5s-3 0-3 5 0 2 0 6c0 0-2 0-2 6 0 0 2.379-2.375 4.312-2.895 0.004 0.582 0.31 1.051 0.688 1.051s0.684-0.47 0.688-1.051c1.933 0.52 4.312 2.895 4.312 2.895 0-6-2-6-2-6zM9 1.001c0.26 0.021 1.667 0.27 1.947 2.999h-3.894c0.28-2.729 1.687-2.978 1.947-2.999zM9 13c-1.271 0-2.742 0.868-3.877 1.717 0.263-2.121 0.859-2.629 0.993-2.717h0.884v-7h4v7h0.884c0.134 0.088 0.73 0.596 0.993 2.717-1.135-0.849-2.606-1.717-3.877-1.717z" fill="#000000" />
</svg>

<svg xmlns="http://www.w3.org/2000/svg" width="17" height="17"><path d="M12 11V5c0-5-3-5-3-5S6 0 6 5v6s-2 0-2 6c0 0 2.379-2.375 4.312-2.895.004.582.31 1.051.688 1.051s.684-.47.688-1.051C11.621 14.625 14 17 14 17c0-6-2-6-2-6zM9 1.001c.26.021 1.667.27 1.947 2.999H7.053C7.333 1.271 8.74 1.022 9 1.001zM9 13c-1.271 0-2.742.868-3.877 1.717.263-2.121.859-2.629.993-2.717H7V5h4v7h.884c.134.088.73.596.993 2.717C11.742 13.868 10.271 13 9 13z"/></svg>
